X: 291
%
U:~=!turn!
T: Lady Charlotte Campbell's Reel
C:
O:Scotland
B:Keith Norman MacDonald : "The Skye collection of the best reels & strathspeys extant" : 1887
Z:Ralph Palmer
R:Reel
M:C
L:1/8
K:Bb
F | B3 f dBfd | edcB AFBA | B2 bf dBfB | AFec dBB :| d | f2 d>b g2 E>e | c2 A>a f2 D>d |
B2 Gg edcB | AcFe dBBf | dBba gfed | cAag fedc | BGgf edcB | AFec dBB |]


